X:203
%%pagewidth 9in
%%vocalfont Baskerville10Pro 14
T:The country lass
M:3/4
L:1/8
K:C
%%score 1 2
V:1 clef-treble
V:2 clef-bass octave=-1
%%pos vol above
[V:1]G|Gc[D3B3][Ec] & E2x4|d(e/d/)c3B &F2E2x2|AGF3E & C2C2B,2|Ec3zG &C6|
w:Al-though, I am a count-ry* lass, A lof-ty mind I bear-a, I
w:*Down,* down, derry, der-ry* down, Hey down a down, a down-a, a
[V:2]z|C2G2G,2|B,2C2C,2|FED2G,2|C2C,2z2|
[V:1]GcB3c &E2D3E|d(e/d/)c3B & F2E2x2|AGF3E & C2C2B,2|Ec3!fine!z & C4x||G|
w:think my-self as good as* those That gay ap-pa-rel wear-a; My
w:der-ry, der-ry derry, derry* down, Hey down-a, down-a der-ry.*
[V:2]C2G2G,2|B,2C2C,2|FED2G,2|C2C,2z||z|
[V:1]GEG3A & C4^C2|AFA3e &D4E2|fed3c & A4A2|Bd3zG & G4x2|
w:coat is made of come-ly gray, Yet is my skin as soft-a, As
[V:2][CE]4[A,E]2|[DF]4[^CA]2|A4d2 & D3EF2|[Gd]2G,2z2|
[V:1]FED2C2 & C2x4|fe[Bd]3c & [FA]2F2G2|dcB3A & [DA]2[DG]2[B,F]2|Gc3!dacapo!z & [CE]2-[CE]2z||
w:those that with the choic-est wines Do bathe their bo-dies oft-a.
[V:2]x2G2E2&A,2B,2C2|D2D2E2|F2G2G,2|C2C,2z||

